images/facebook.svg

<svg width="44" height="44" viewBox="0 0 44 44" fill="none" xmlns="http://www.w3.org/2000/svg">
<g clip-path="url(#clip0)">
<path d="M25.3308 15.3208H27.1566V12.1408C26.8416 12.0975 25.7583 12 24.4966 12C21.8641 12 20.0608 13.6558 20.0608 16.6992V19.5H17.1558V23.055H20.0608V32H23.6224V23.0558H26.4099L26.8524 19.5008H23.6216V17.0517C23.6224 16.0242 23.8991 15.3208 25.3308 15.3208Z" fill="#AFB1B8"/>
</g>
<defs>
<clipPath id="clip0">
<rect x="12" y="12" width="20" height="20" fill="white"/>
</clipPath>
</defs>
</svg>

<svg width="44" height="44" fill="none" xmlns="http://www.w3.org/2000/svg"><g clip-path="url(#clip0)"><path d="M25.33 15.32h1.827v-3.18a23.588 23.588 0 00-2.66-.14c-2.633 0-4.436 1.656-4.436 4.7v2.8h-2.905v3.555h2.905V32h3.561v-8.944h2.788l.442-3.555h-3.23v-2.45c0-1.027.277-1.73 1.709-1.73z" fill="#AFB1B8"/></g><defs><clipPath id="clip0"><path fill="#fff" d="M12 12h20v20H12z"/></clipPath></defs></svg>
